icons/1_Primary/OLG.svg

<svg xmlns="http://www.w3.org/2000/svg" width="1024" height="1024" fill="none">
   <g clip-path="url(#a)">
      <path fill="#FF837D" d="M512 1024c282.77 0 512-229.23 512-512S794.77 0 512 0 0 229.23 0 512s229.23 512 512 512Z"/>
      <path fill="#fff" d="M320.33 478.5c28.58 0 51.89 26 51.89 57.86s-23.31 57.74-51.89 57.74c-28.58 0-51.77-25.77-51.77-57.74 0-31.97 23.19-57.86 51.77-57.86Zm-.23 98.38c17.1 0 31.04-18.04 31.04-40.17 0-22.13-13.94-40.17-31.04-40.17s-31.04 18.04-31.04 40.17c0 22.13 13.94 40.17 31.04 40.17Zm164.22-95.8 21.79.59.47 91 36.43-.47 3.51 19.91-62.31-.12.12-110.92-.01.01Zm216.8 46.85.35.23 43.34-.23v53.06c-29.87 18.04-54.23 9.6-54.23 9.6a46.852 46.852 0 0 1-35.14-36.66c-7.03-29.63 4.33-49.31 4.33-49.31 11.01-21.79 29.75-24.83 29.75-24.83 25.77-7.49 49.89 6.33 49.89 6.33l-3.16 19.91c-30.45-20.38-48.96-4.22-48.96-4.22-14.76 10.66-12.88 35.84-12.88 35.84 1.17 22.02 12.41 30.45 12.41 30.45 16.87 12.18 39.35 2.11 39.35 2.11l-.23-24.71h-21.9l-2.93-17.57h.01ZM333.09 255.59l-.28 184.31c-3.79-.45-7.6-.68-11.41-.69h-.02c-53.61-.26-97.31 43.17-97.38 96.79.07 53.62 43.77 97.06 97.38 96.79 3.77 0 7.48-.22 11.14-.63l-.14 91.58h55.98l410.75-.58-90.26-90.55c50.73-2.99 91.08-45.09 91.14-96.59 0-53.36-43.55-96.78-97.12-96.79h-.02c-47.08-.23-86.5 33.24-95.46 77.71-8.66-42.98-45.98-75.75-91.2-77.6L333.07 255.61l.02-.02ZM321.36 446.8h.02c49.49 0 89.55 39.96 89.56 89.2-.06 49.42-40.13 89.33-89.55 89.21h-.03c-49.5.25-89.71-39.7-89.77-89.2.07-49.51 40.27-89.46 89.77-89.21Zm190.8 0h.02c49.49 0 89.55 39.96 89.56 89.2-.06 49.42-40.13 89.33-89.55 89.21h-.03c-49.5.25-89.71-39.7-89.77-89.2.07-49.51 40.27-89.46 89.77-89.21Zm190.69 0h.02c49.49 0 89.55 39.96 89.56 89.2-.06 49.42-40.13 89.33-89.55 89.21h-.03c-49.51.25-89.7-39.7-89.77-89.2.07-49.51 40.26-89.46 89.77-89.21Z"/>
   </g>
   <defs>
      <clipPath id="a">
         <path fill="#fff" d="M0 0h1024v1024H0z"/>
      </clipPath>
   </defs>
</svg>

<svg width="1024" height="1024" viewBox="0 0 1024 1024" fill="none" xmlns="http://www.w3.org/2000/svg">
<g clip-path="url(#clip0_2_3006)">
<path d="M512 1024C794.77 1024 1024 794.77 1024 512C1024 229.23 794.77 0 512 0C229.23 0 0 229.23 0 512C0 794.77 229.23 1024 512 1024Z" fill="#FF837D"/>
<path d="M320.33 478.5C348.91 478.5 372.22 504.5 372.22 536.36C372.22 568.22 348.91 594.1 320.33 594.1C291.75 594.1 268.56 568.33 268.56 536.36C268.56 504.39 291.75 478.5 320.33 478.5ZM320.1 576.88C337.2 576.88 351.14 558.84 351.14 536.71C351.14 514.58 337.2 496.54 320.1 496.54C303 496.54 289.06 514.58 289.06 536.71C289.06 558.84 303 576.88 320.1 576.88ZM484.32 481.08L506.11 481.67L506.58 572.67L543.01 572.2L546.52 592.11L484.21 591.99L484.33 481.07L484.32 481.08ZM701.12 527.93L701.47 528.16L744.81 527.93V580.99C714.94 599.03 690.58 590.59 690.58 590.59C681.819 588.503 673.845 583.935 667.612 577.434C661.38 570.932 657.154 562.772 655.44 553.93C648.41 524.3 659.77 504.62 659.77 504.62C670.78 482.83 689.52 479.79 689.52 479.79C715.29 472.3 739.41 486.12 739.41 486.12L736.25 506.03C705.8 485.65 687.29 501.81 687.29 501.81C672.53 512.47 674.41 537.65 674.41 537.65C675.58 559.67 686.82 568.1 686.82 568.1C703.69 580.28 726.17 570.21 726.17 570.21L725.94 545.5H704.04L701.11 527.93H701.12ZM333.09 255.59L332.81 439.9C329.02 439.45 325.21 439.22 321.4 439.21H321.38C267.77 438.95 224.07 482.38 224 536C224.07 589.62 267.77 633.06 321.38 632.79C325.15 632.79 328.86 632.57 332.52 632.16L332.38 723.74H388.36L799.11 723.16L708.85 632.61C759.58 629.62 799.93 587.52 799.99 536.02C799.99 482.66 756.44 439.24 702.87 439.23H702.85C655.77 439 616.35 472.47 607.39 516.94C598.73 473.96 561.41 441.19 516.19 439.34L333.07 255.61L333.09 255.59ZM321.36 446.8H321.38C370.87 446.8 410.93 486.76 410.94 536C410.88 585.42 370.81 625.33 321.39 625.21H321.36C271.86 625.46 231.65 585.51 231.59 536.01C231.66 486.5 271.86 446.55 321.36 446.8ZM512.16 446.8H512.18C561.67 446.8 601.73 486.76 601.74 536C601.68 585.42 561.61 625.33 512.19 625.21H512.16C462.66 625.46 422.45 585.51 422.39 536.01C422.46 486.5 462.66 446.55 512.16 446.8ZM702.85 446.8H702.87C752.36 446.8 792.42 486.76 792.43 536C792.37 585.42 752.3 625.33 702.88 625.21H702.85C653.34 625.46 613.15 585.51 613.08 536.01C613.15 486.5 653.34 446.55 702.85 446.8Z" fill="white"/>
</g>
<defs>
<clipPath id="clip0_2_3006">
<rect width="1024" height="1024" fill="white"/>
</clipPath>
</defs>
</svg>
